X:1
T:Title
%%score { ( 1 3 ) | ( 2 4 ) }
L:1/8
Q:1/4=100
M:2/2
K:F
V:1 treble nm="Grand Piano"
V:3 treble 
V:2 bass 
V:4 bass 
V:1
 A4 A2 A2 | B6 A2 | [CA]2 G2 F2 [EG]2 | A8 | c4 c2 c2 | [Fd]6 c2 | c2 =B2 .[DFA]4 | [CEc]8 | %8
w: Geo.~C.~Stebbins * *||||||||
 [CEc]4 [CEG]2 [CEA]2 | [CEB]6 [DFB]2 | [CGB]2 [CE]2 [DF]2 [EG]2 | A8 | G4 A2 B2 | z4 [Fd]4 | %14
w: ||||||
 [CFA]4 [CG]4 | [A,CF]8 |] %16
w: ||
V:2
 [F,CF]4 [F,CF]2 [F,CF]2 | [F,DF]6 [F,CF]2 | z2 B,2 [D,A,]2 [C,C]2 | [F,CF]8 | %4
 [F,A,F]4 [F,A,F]2 [F,A,F]2 | [D,A,]6 [F,A,F]2 | [G,D]4 z2[K:treble] =B2 | C,8 | C,4 B,2 A,2 | %9
 G,6 F,2 | z2 B,2 [D,A,]2 [C,C]2 | [F,CF]8 | [B,CE]4 [A,CE]2 [G,CE]2 | [F,A,F]4 [B,,B,]2 =B,,2 | %14
 z4 B,4 | F,8 |] %16
V:3
 x8 | x8 | E4 z4 | x8 | x8 | x8 | x8 | x8 | x8 | x8 | x8 | x8 | x8 | c4 z2 D2 | x8 | x8 |] %16
V:4
 x8 | x8 | C,4 z4 | x8 | x8 | x8 | z4 G,,4[K:treble] | x8 | x8 | x8 | E,4 z4 | x8 | x8 | x8 | C,8 | %15
 x8 |] %16

